static/fa/svgs/solid/building-un.svg

<svg xmlns="http://www.w3.org/2000/svg" viewBox="0 0 384 512"><!--! Font Awesome Free 6.1.1 by @fontawesome - https://fontawesome.com License - https://fontawesome.com/license/free (Icons: CC BY 4.0, Fonts: SIL OFL 1.1, Code: MIT License) Copyright 2022 Fonticons, Inc.--><path d="M336 0c26.5 0 48 21.49 48 48v416c0 26.5-21.5 48-48 48h-96v-80c0-26.5-21.5-48-48-48s-48 21.5-48 48v80H48c-26.51 0-48-21.5-48-48V48C0 21.49 21.49 0 48 0h288zM64 272c0 8.8 7.16 16 16 16h32c8.8 0 16-7.2 16-16v-32c0-8.8-7.2-16-16-16H80c-8.84 0-16 7.2-16 16v32zm112-48c-8.8 0-16 7.2-16 16v32c0 8.8 7.2 16 16 16h32c8.8 0 16-7.2 16-16v-32c0-8.8-7.2-16-16-16h-32zm80 48c0 8.8 7.2 16 16 16h32c8.8 0 16-7.2 16-16v-32c0-8.8-7.2-16-16-16h-32c-8.8 0-16 7.2-16 16v32zM237.3 71.12c-3.9-5.86-11.2-8.48-17.9-6.43C212.6 66.73 208 72.95 208 80v96c0 8.8 7.2 16 16 16s16-7.2 16-16v-43.2l34.7 52.1c3.9 5.8 11.2 8.5 17.9 6.4 6.8-2 11.4-8.2 11.4-15.3V80c0-8.84-7.2-16-16-16s-16 7.16-16 16v43.2l-34.7-52.08zM112 80c0-8.84-7.2-16-16-16-8.84 0-16 7.16-16 16v64c0 26.5 21.5 48 48 48s48-21.5 48-48V80c0-8.84-7.2-16-16-16s-16 7.16-16 16v64c0 8.8-7.2 16-16 16s-16-7.2-16-16V80z"/></svg>

<svg xmlns="http://www.w3.org/2000/svg" viewBox="0 0 384 512"><!--! Font Awesome Free 6.1.1 by @fontawesome - https://fontawesome.com License - https://fontawesome.com/license/free (Icons: CC BY 4.0, Fonts: SIL OFL 1.1, Code: MIT License) Copyright 2022 Fonticons, Inc. --><path d="M336 0C362.5 0 384 21.49 384 48V464C384 490.5 362.5 512 336 512H240V432C240 405.5 218.5 384 192 384C165.5 384 144 405.5 144 432V512H48C21.49 512 0 490.5 0 464V48C0 21.49 21.49 0 48 0H336zM64 272C64 280.8 71.16 288 80 288H112C120.8 288 128 280.8 128 272V240C128 231.2 120.8 224 112 224H80C71.16 224 64 231.2 64 240V272zM176 224C167.2 224 160 231.2 160 240V272C160 280.8 167.2 288 176 288H208C216.8 288 224 280.8 224 272V240C224 231.2 216.8 224 208 224H176zM256 272C256 280.8 263.2 288 272 288H304C312.8 288 320 280.8 320 272V240C320 231.2 312.8 224 304 224H272C263.2 224 256 231.2 256 240V272zM237.3 71.12C233.4 65.26 226.1 62.64 219.4 64.69C212.6 66.73 208 72.95 208 80V176C208 184.8 215.2 192 224 192C232.8 192 240 184.8 240 176V132.8L274.7 184.9C278.6 190.7 285.9 193.4 292.6 191.3C299.4 189.3 304 183.1 304 176V80C304 71.16 296.8 64 288 64C279.2 64 272 71.16 272 80V123.2L237.3 71.12zM112 80C112 71.16 104.8 64 96 64C87.16 64 80 71.16 80 80V144C80 170.5 101.5 192 128 192C154.5 192 176 170.5 176 144V80C176 71.16 168.8 64 160 64C151.2 64 144 71.16 144 80V144C144 152.8 136.8 160 128 160C119.2 160 112 152.8 112 144V80z"/></svg>
